icons/e-mail_small.svg

<svg width="26" height="26" viewBox="0 0 26 26" fill="none" xmlns="http://www.w3.org/2000/svg">
<path d="M0.542739 4.83214C4.11114 7.85418 10.3726 13.1709 12.2129 14.8286C12.4599 15.0524 12.7249 15.1661 13 15.1661C13.2745 15.1661 13.539 15.0534 13.7855 14.8308C15.6274 13.1714 21.8888 7.85418 25.4573 4.83214C25.6795 4.64435 25.7133 4.31427 25.5335 4.08469C25.1177 3.55418 24.4977 3.25 23.8333 3.25H2.16667C1.5023 3.25 0.882313 3.55418 0.466567 4.08474C0.2867 4.31427 0.320571 4.64435 0.542739 4.83214Z" fill="#CD06FF"/>
<path d="M25.6858 6.46993C25.4938 6.38056 25.2679 6.41174 25.1082 6.54824C21.1509 9.90295 16.1003 14.203 14.5113 15.6349C13.6194 16.44 12.3816 16.44 11.4876 15.6338C9.79387 14.1077 4.12222 9.28616 0.89182 6.54819C0.730996 6.41169 0.504613 6.38157 0.314184 6.46988C0.122738 6.5588 0 6.7503 0 6.96134V20.5834C0 21.7784 0.971699 22.7501 2.16668 22.7501H23.8334C25.0283 22.7501 26 21.7784 26 20.5834V6.96134C26 6.7503 25.8773 6.55829 25.6858 6.46993Z" fill="#CD06FF"/>
</svg>

<svg width="26" height="26" fill="none" xmlns="http://www.w3.org/2000/svg"><path d="M.543 4.832c3.568 3.022 9.83 8.339 11.67 9.997.247.223.512.337.787.337.274 0 .539-.113.786-.335 1.841-1.66 8.103-6.977 11.671-9.999a.541.541 0 0 0 .076-.747 2.151 2.151 0 0 0-1.7-.835H2.167a2.15 2.15 0 0 0-1.7.835c-.18.23-.146.56.076.747Z" fill="#CD06FF"/><path d="M25.686 6.47a.54.54 0 0 0-.578.078c-3.957 3.355-9.008 7.655-10.597 9.087-.892.805-2.13.805-3.023-.001C9.794 14.108 4.122 9.286.892 6.548A.542.542 0 0 0 0 6.961v13.622c0 1.195.972 2.167 2.167 2.167h21.666A2.169 2.169 0 0 0 26 20.583V6.961a.541.541 0 0 0-.314-.491Z" fill="#CD06FF"/></svg>
